X: 41892
T: Vrålkåda
R: reel
M: 4/4
K: Eminor
|:g3f e2e>g|f3d B2 B2|g3f e3g|f2 ^a2 b4|
g3f e3g|f3d B2 B>=d|c>B A2 B2 B>G|F>E D2 E2:|
|:E>G F2 F4|F>AG2 G4|G>Bd>e d>Bc>e|c>AB2 B4|
E>G F2 F4|F>AG>A B>dc>B|A2 B4B>G|F>E D2 E4:|

